icons/home-16.svg

<svg xmlns="http://www.w3.org/2000/svg" width="16" height="16" viewBox="0 0 16 16"><path fill-rule="evenodd" d="M8.156 1.835a.25.25 0 00-.312 0l-5.25 4.2a.25.25 0 00-.094.196v7.019c0 .138.112.25.25.25H5.5V8.25a.75.75 0 01.75-.75h3.5a.75.75 0 01.75.75v5.25h2.75a.25.25 0 00.25-.25V6.23a.25.25 0 00-.094-.195l-5.25-4.2zM6.906.664a1.75 1.75 0 012.187 0l5.25 4.2c.415.332.657.835.657 1.367v7.019A1.75 1.75 0 0113.25 15h-3.5a.75.75 0 01-.75-.75V9H7v5.25a.75.75 0 01-.75.75h-3.5A1.75 1.75 0 011 13.25V6.23c0-.531.242-1.034.657-1.366l5.25-4.2h-.001z"/></svg>

<svg xmlns="http://www.w3.org/2000/svg" width="16" height="16" viewBox="0 0 16 16">
  <defs/>
  <path d="M6.906,0.664 C7.545,0.152 8.454,0.152 9.093,0.664 L14.343,4.864 C14.758,5.196 15,5.699 15,6.231 L15,13.25 C15,14.216 14.216,15 13.25,15 L9.75,15 C9.336,15 9,14.664 9,14.25 L9,9 L7,9 L7,14.25 C7,14.664 6.664,15 6.25,15 L2.75,15 C1.784,15 1,14.216 1,13.25 L1,6.23 C1,5.699 1.242,5.196 1.657,4.864 L6.907,0.664 Z M8.156,1.835 C8.065,1.762 7.935,1.762 7.844,1.835 L2.594,6.035 C2.534,6.083 2.5,6.155 2.5,6.231 L2.5,13.25 C2.5,13.388 2.612,13.5 2.75,13.5 L5.5,13.5 L5.5,8.25 C5.5,7.836 5.836,7.5 6.25,7.5 L9.75,7.5 C10.164,7.5 10.5,7.836 10.5,8.25 L10.5,13.5 L13.25,13.5 C13.388,13.5 13.5,13.388 13.5,13.25 L13.5,6.23 C13.5,6.154 13.465,6.082 13.406,6.035 Z"/>
</svg>
